build/svg/cmd/sc_auditingfillmode.svg

<?xml version="1.0" encoding="UTF-8" standalone="no"?>
<svg
   xmlns:dc="http://purl.org/dc/elements/1.1/"
   xmlns:cc="http://creativecommons.org/ns#"
   xmlns:rdf="http://www.w3.org/1999/02/22-rdf-syntax-ns#"
   xmlns:svg="http://www.w3.org/2000/svg"
   xmlns="http://www.w3.org/2000/svg"
   xmlns:sodipodi="http://sodipodi.sourceforge.net/DTD/sodipodi-0.dtd"
   xmlns:inkscape="http://www.inkscape.org/namespaces/inkscape"
   viewBox="0 0 16 16"
   version="1.1"
   id="svg4"
   sodipodi:docname="sc_auditingfillmode.svg"
   inkscape:export-filename="/home/jupiter007/Libreoffice yaru theme fullcolor/build/cmd/sc_auditingfillmode.png"
   inkscape:export-xdpi="96"
   inkscape:export-ydpi="96"
   inkscape:version="0.92.5 (2060ec1f9f, 2020-04-08)">
  <metadata
     id="metadata10">
    <rdf:RDF>
      <cc:Work
         rdf:about="">
        <dc:format>image/svg+xml</dc:format>
        <dc:type
           rdf:resource="http://purl.org/dc/dcmitype/StillImage" />
      </cc:Work>
    </rdf:RDF>
  </metadata>
  <defs
     id="defs8" />
  <sodipodi:namedview
     pagecolor="#ffffff"
     bordercolor="#666666"
     borderopacity="1"
     objecttolerance="10"
     gridtolerance="10"
     guidetolerance="10"
     inkscape:pageopacity="0"
     inkscape:pageshadow="2"
     inkscape:window-width="1920"
     inkscape:window-height="1011"
     id="namedview6"
     showgrid="true"
     inkscape:zoom="45.254834"
     inkscape:cx="3.4812927"
     inkscape:cy="12.245448"
     inkscape:window-x="1920"
     inkscape:window-y="32"
     inkscape:window-maximized="1"
     inkscape:current-layer="svg4">
    <inkscape:grid
       type="xygrid"
       id="grid817" />
  </sodipodi:namedview>
  <path
     style="opacity:1;fill:#e95420;fill-opacity:1;fill-rule:evenodd;stroke:none;stroke-width:2;stroke-linecap:butt;stroke-linejoin:round;stroke-miterlimit:4;stroke-dasharray:none;stroke-opacity:1"
     d="M 3 0 A 3 3 0 0 0 0 3 A 3 3 0 0 0 3 6 A 3 3 0 0 0 4.2910156 5.7050781 L 8.6582031 10.072266 L 7.5976562 11.132812 L 11.841797 11.839844 L 11.134766 7.5976562 L 10.072266 8.6582031 L 5.7050781 4.2910156 A 3 3 0 0 0 5.8261719 4 L 12 4 L 12 5.5 L 15.5 3 L 12 0.5 L 12 2 L 5.8242188 2 A 3 3 0 0 0 3 0 z M 3 2 A 1 1 0 0 1 4 3 A 1 1 0 0 1 3 4 A 1 1 0 0 1 2 3 A 1 1 0 0 1 3 2 z "
     id="path831" />
  <g
     id="g869"
     transform="translate(-0.49445322,-1.0000001)">
    <g
       id="g869-6"
       transform="translate(-5.5055468,-4.9999999)">
      <path
         style="color:#000000;display:inline;overflow:visible;visibility:visible;opacity:1;fill:none;fill-opacity:0;fill-rule:nonzero;stroke:#6d6d6d;stroke-width:1.60000002;stroke-linecap:round;stroke-linejoin:miter;stroke-miterlimit:4;stroke-dasharray:none;stroke-dashoffset:0;stroke-opacity:1;marker:none;enable-background:accumulate"
         d="M 21.000001,21 19,19"
         id="path1244"
         inkscape:connector-curvature="0"
         sodipodi:nodetypes="cc" />
      <ellipse
         ry="3.5"
         rx="3.5001287"
         style="color:#000000;display:inline;overflow:visible;visibility:visible;opacity:1;fill:#ffffff;fill-opacity:0.97000002;fill-rule:nonzero;stroke:#6d6d6d;stroke-width:1;stroke-linecap:butt;stroke-linejoin:miter;stroke-miterlimit:4;stroke-dasharray:none;stroke-dashoffset:0;stroke-opacity:1;marker:none;enable-background:accumulate"
         id="circle1248"
         cx="15.999887"
         cy="16" />
    </g>
  </g>
  <circle
     style="opacity:1;fill:#ffffff;fill-opacity:1;fill-rule:evenodd;stroke:none;stroke-width:2;stroke-linecap:butt;stroke-linejoin:round;stroke-miterlimit:4;stroke-dasharray:none;stroke-opacity:1"
     id="path817"
     cx="3"
     cy="3"
     r="1" />
</svg>

<svg xmlns="http://www.w3.org/2000/svg" viewBox="0 0 16 16"><path d="M3 0a3 3 0 00-3 3 3 3 0 003 3 3 3 0 001.291-.295l4.367 4.367-1.06 1.06 4.244.708-.707-4.242-1.063 1.06-4.367-4.367A3 3 0 005.826 4H12v1.5L15.5 3 12 .5V2H5.824A3 3 0 003 0zm0 2a1 1 0 011 1 1 1 0 01-1 1 1 1 0 01-1-1 1 1 0 011-1z" fill="#e95420" fill-rule="evenodd"/><g transform="translate(-6 -6)" color="#000" stroke="#6d6d6d"><path style="marker:none" d="M21 21l-2-2" overflow="visible" fill="none" stroke-width="1.6" stroke-linecap="round"/><circle style="marker:none" cx="16" cy="16" overflow="visible" fill="#fff" fill-opacity=".97" r="3.5"/></g><circle cx="3" cy="3" r="1" fill="#fff" fill-rule="evenodd"/></svg>
